X: 26333
T: Men Of The West, The
R: waltz
M: 3/4
K: Dmajor
|:A2|d4 c>d|f2 e2 d2|a6|b4 a2|f4 e2|d2 e2 a2|B6|c4 B>c|
d4 c>d|f2 (3efe d2|a6|b4 a2|f2- f>e d2|e4 d>e|d6-|d4:|
|:f>g|a4 b>a|a2 f2 a2|d'4 c'2|b4 a2|f4 e2|d2- d>e a2|B6|c4 (3ABc|
d4 c>d|(3fgf e2 d2|a6|b4 a2|f4 d2|e4 d>c|d6-|d4:|

